src/lib/packages/icons/src/assets/line/chart-pyramid.svg

<svg width="24" height="24" viewBox="0 0 24 24" fill="none" xmlns="http://www.w3.org/2000/svg">
<path d="M21.479 17.557L14.3 4.60498C13.83 3.75598 12.97 3.25 12.001 3.25C11.032 3.25 10.172 3.75598 9.70202 4.60498L2.523 17.558C2.149 18.231 2.15998 19.029 2.54998 19.692C2.94098 20.355 3.63297 20.751 4.40197 20.751H19.6C20.37 20.751 21.062 20.355 21.452 19.692C21.841 19.028 21.852 18.23 21.479 17.557ZM7.73297 11.25H16.268L18.208 14.75H5.794L7.73297 11.25ZM11.013 5.33203C11.215 4.96703 11.584 4.75 12 4.75C12.416 4.75 12.785 4.96703 12.987 5.33203L15.436 9.75H8.56402L11.013 5.33203ZM20.158 18.9301C20.101 19.0261 19.933 19.25 19.598 19.25H4.40002C4.06602 19.25 3.898 19.0261 3.841 18.9301C3.784 18.8341 3.67 18.5781 3.833 18.2841L4.96099 16.249H19.038L20.166 18.2841C20.329 18.5781 20.215 18.8331 20.158 18.9301Z" fill="currentColor"/>
</svg>

<svg xmlns="http://www.w3.org/2000/svg" width="24" height="24" fill="none"><path fill="currentColor" d="M21.479 17.557 14.3 4.605a2.595 2.595 0 0 0-2.299-1.355c-.969 0-1.829.506-2.299 1.355L2.523 17.558a2.13 2.13 0 0 0 .027 2.134 2.131 2.131 0 0 0 1.852 1.059H19.6c.77 0 1.462-.396 1.852-1.059.389-.664.4-1.462.027-2.135ZM7.733 11.25h8.535l1.94 3.5H5.794l1.939-3.5Zm3.28-5.918c.202-.365.571-.582.987-.582.416 0 .785.217.987.582l2.449 4.418H8.564l2.449-4.418Zm9.145 13.598a.64.64 0 0 1-.56.32H4.4a.64.64 0 0 1-.559-.32.64.64 0 0 1-.008-.646l1.128-2.035h14.077l1.128 2.035a.64.64 0 0 1-.008.646Z"/></svg>
